X:1
T:Pilgrim Brothers, 87.87 D
T:Pilgrim Brothers, 87.87 D
T:Arr. from F. Bridges by C. H. H. Parry, 1904
T:Public Domain Courtesy of the Cyber Hymnal™
C:Arr. from F. Bridges by C. H. H. Parry, 1904
Z:Public Domain
Z:Courtesy of the Cyber Hymnal™
%%score ( 1 2 ) ( 3 4 )
L:1/8
Q:1/4=110
M:4/4
K:G
V:1 treble 
V:2 treble 
V:3 bass 
V:4 bass 
V:1
 d3 [Fc] B3 z A | GA [GB]2 [Gc]2 [FA]2 | d3 z c [GB]2 (AB) | (GF) [A,E]2 [A,A]4 | B3 [FA] G3 z F | %5
 E2 (FG) [EA]2 [^DF]2 x | B3 z F G3 z F | GF [^CE]2 D4 | [DF]2 [FB]2 c3 z B | %9
 [DA]2 [DG]2 [DA]2 D2 | [FA]2 [GB]2 (d2 c)[GB] | [EA]2 [EG]2 [FA]4 | d3 z B [EA]2 [EG]2 | %13
 c3 z A [DG]2 [DF]2 | G3 z B d4- | [Fd]2 [GB]2 A3 z G | G8 |] %17
V:2
 D2 (E G2) ^D2 x2 | E2 x6 | G2 (F2 x D2) x2 | D2 x6 | F2 (E G2) ^D2 x2 | E2 E2 x5 | %6
 E2 (.^D2 E2) .=D2 x2 | D2 x D4 x | x4 G2 G2 x | x6 D2 | x4 A3 x | x8 | F2 F2 x5 | E2 E2 x5 | %14
 D2 D2 A2 G2 x | x4 G2 F2 x | G8 |] %17
V:3
 [B,D]2 [A,D]2 [G,D]2 [F,B,]2 x | [E,B,]2 [E,E]2 [A,,E]2 D2 | [B,,D]2 [D,D]2 [G,D]2 [F,A,]2 x | %3
 [E,B,]2 [G,^C]2 D4 | [^D,F,]2 B,2 [E,B,]2 [B,,A,]2 x | G,2 z [A,,C]2 B,2 x2 | %6
 [G,,B,]2 [B,,B,]2 [E,B,]2 [B,,B,]2 x2 | (B,A,) [A,,G,]2 [D,F,]4 | [D,D]2 [D,D]2 [E,C]2 [G,D]2 x | %9
 [F,A,]2 [E,B,]2 [F,A,]2 [D,F,]2 | [C,D]2 [B,,D]2 [A,,E]3 [B,,D] | [C,C]2 [E,B,]2 D4 | %12
 [B,,D]2 [D,D]2 [E,B,]2 [E,B,]2 x | [A,,C]2 [C,C]2 [D,A,]2 [D,A,]2 x | G,3 z B, D4- | %15
 D2 D2 C3 B, x | [G,,B,]8 |] %17
V:4
 x9 | x6 (D,C,) | x9 | x4 (G,2 F,2) | x2 (^C,^D,) x5 | C,3 (C2 B,,) x (B,,A,,) | x10 | G,,2 x6 | %8
 x9 | x8 | x8 | x4 (D,2 C,2) | x9 | x9 | B,,2 G,2 F,2 E,2 x | D,4 D,4 x | x8 |] %17

